Numix-Light/scalable/mimetypes/text-x-generic-symbolic.svg

<?xml version="1.0" encoding="UTF-8" standalone="no"?>
<svg
   xmlns:dc="http://purl.org/dc/elements/1.1/"
   xmlns:cc="http://creativecommons.org/ns#"
   xmlns:rdf="http://www.w3.org/1999/02/22-rdf-syntax-ns#"
   xmlns:svg="http://www.w3.org/2000/svg"
   xmlns="http://www.w3.org/2000/svg"
   xmlns:sodipodi="http://sodipodi.sourceforge.net/DTD/sodipodi-0.dtd"
   xmlns:inkscape="http://www.inkscape.org/namespaces/inkscape"
   width="16"
   height="16"
   viewBox="0 0 16 16"
   id="svg2"
   version="1.1"
   inkscape:version="0.91 r"
   sodipodi:docname="text-x-generic-symbolic.svg">
  <metadata
     id="metadata16">
    <rdf:RDF>
      <cc:Work
         rdf:about="">
        <dc:format>image/svg+xml</dc:format>
        <dc:type
           rdf:resource="http://purl.org/dc/dcmitype/StillImage" />
        <dc:title></dc:title>
      </cc:Work>
    </rdf:RDF>
  </metadata>
  <defs
     id="defs14" />
  <sodipodi:namedview
     pagecolor="#ffffff"
     bordercolor="#666666"
     borderopacity="1"
     objecttolerance="10"
     gridtolerance="10"
     guidetolerance="10"
     inkscape:pageopacity="0"
     inkscape:pageshadow="2"
     inkscape:window-width="1920"
     inkscape:window-height="1056"
     id="namedview12"
     showgrid="true"
     inkscape:zoom="29.5"
     inkscape:cx="4.7388114"
     inkscape:cy="2.7543044"
     inkscape:window-x="0"
     inkscape:window-y="24"
     inkscape:window-maximized="1"
     inkscape:current-layer="svg2">
    <inkscape:grid
       type="xygrid"
       id="grid3004" />
  </sodipodi:namedview>
  <path
     style="fill:#353535;fill-opacity:1"
     d="M 2.6679688,1 C 2.3242188,1 2,1.3386309 2,1.6972656 L 2,14.302734 C 2,14.640991 2.3437498,15 2.6679688,15 L 13.332031,15 C 13.65625,15 14,14.640991 14,14.302734 L 14,5 10,1 Z M 3,2 10,2 10,4.3828125 C 10,4.6819115 10.337417,5.1155828 10.613281,5 L 13,5 13,14 3,14 Z"
     id="path4-2"
     inkscape:connector-curvature="0"
     sodipodi:nodetypes="ssssssccsccsccccc" />
  <g
     id="g4162"
     transform="translate(15.491527,1.084523)"
     style="fill:#353535;fill-opacity:1">
    <path
       d="m -11.491527,6.9154767 0,1 8,0 0,-1 z"
       id="path16"
       inkscape:connector-curvature="0"
       style="fill:#353535;fill-opacity:1" />
    <path
       d="m -11.491527,8.9154767 0,1 8,0 0,-1 z"
       id="path22"
       inkscape:connector-curvature="0"
       style="fill:#353535;fill-opacity:1" />
    <path
       d="m -11.491527,10.915477 0,1 8,0 0,-1 z"
       id="path28"
       inkscape:connector-curvature="0"
       style="fill:#353535;fill-opacity:1" />
    <path
       d="m -11.491526,4.9154767 0,1 7.999999,0 0,-1 z"
       id="path16-4"
       inkscape:connector-curvature="0"
       style="fill:#353535;fill-opacity:1" />
  </g>
</svg>

<svg xmlns="http://www.w3.org/2000/svg" viewBox="0 0 16 16">
 <path d="m 2.668 1 c -0.344 0 -0.668 0.339 -0.668 0.697 l 0 12.605 c 0 0.338 0.344 0.697 0.668 0.697 l 10.664 0 c 0.324 0 0.668 -0.359 0.668 -0.697 l 0 -9.303 -4 -4 m -7 1 7 0 0 2.383 c 0 0.299 0.337 0.733 0.613 0.617 l 2.387 0 0 9 -10 0" style="fill:#353535;fill-opacity:1"/>
 <g transform="translate(15.491527,1.084523)" style="fill:#353535;fill-opacity:1">
  <path d="m -11.492 6.915 0 1 8 0 0 -1 z"/>
  <path d="m -11.492 8.915 0 1 8 0 0 -1 z"/>
  <path d="m -11.492 10.915 0 1 8 0 0 -1 z"/>
  <path d="m -11.492 4.915 0 1 8 0 0 -1 z"/>
 </g>
</svg>
